src/assets/icons/filters/categories/jobs_hover.svg

<svg width="48" height="48" viewBox="0 0 48 48" fill="none" xmlns="http://www.w3.org/2000/svg">
<path fill-rule="evenodd" clip-rule="evenodd" d="M14.4 7.98401H4.768C3.50369 7.9857 2.29167 8.48881 1.39782 9.38296C0.503969 10.2771 0.00126995 11.4893 0 12.7536V28.8288C0 29.9968 0.6496 31.008 1.6 31.5488V43.272C1.60169 44.5123 2.09514 45.7013 2.97214 46.5783C3.84915 47.4553 5.03813 47.9487 6.2784 47.9504H41.7216C42.9619 47.9487 44.1509 47.4553 45.0279 46.5783C45.9049 45.7013 46.3983 44.5123 46.4 43.272V31.5472C47.3504 31.008 48 29.9984 48 28.8304V12.7536C47.9987 11.4893 47.496 10.2771 46.6022 9.38296C45.7083 8.48881 44.4963 7.9857 43.232 7.98401H14.4Z" fill="#13C1AC" fill-opacity="0.35"/>
<path fill-rule="evenodd" clip-rule="evenodd" d="M27.2 25.976V31.968H20.8V25.976C20.8 25.7712 20.968 25.6 21.176 25.6H26.824C27.032 25.6 27.2 25.7712 27.2 25.976Z" fill="white" fill-opacity="0.5"/>
<path fill-rule="evenodd" clip-rule="evenodd" d="M43.232 7.984C44.4963 7.98569 45.7083 8.4888 46.6022 9.38295C47.496 10.2771 47.9987 11.4893 48 12.7536V28.8288C48 29.9968 47.3504 31.008 46.4 31.5488V43.272C46.3983 44.5123 45.9049 45.7013 45.0279 46.5783C44.1509 47.4553 42.9619 47.9487 41.7216 47.9504H6.2784C5.03813 47.9487 3.84915 47.4553 2.97214 46.5783C2.09514 45.7013 1.60169 44.5123 1.6 43.272V31.5472C0.6496 31.008 0 29.9984 0 28.8304V12.7536C0.00126995 11.4893 0.503969 10.2771 1.39782 9.38295C2.29167 8.4888 3.50369 7.98569 4.768 7.984H14.4V4.768C14.4013 3.50411 14.9038 2.29233 15.7974 1.39848C16.6909 0.504629 17.9025 0.00169415 19.1664 0H28.8C30.0639 0.00169415 31.2755 0.504629 32.169 1.39848C33.0626 2.29233 33.5651 3.50411 33.5664 4.768V7.984H43.232V7.984ZM43.2 43.272V31.968H30.4V33.3024C30.4 34.3296 29.5632 35.168 28.5328 35.168H19.4672C18.9727 35.1676 18.4985 34.9712 18.1485 34.6218C17.7985 34.2724 17.6013 33.7985 17.6 33.304V31.9696H4.8V43.2736C4.8 44.0896 5.464 44.752 6.2784 44.752H41.7216C42.1138 44.7516 42.4899 44.5955 42.7671 44.318C43.0443 44.0404 43.2 43.6642 43.2 43.272V43.272ZM25.6 36.768C26.0243 36.768 26.4313 36.9366 26.7314 37.2366C27.0314 37.5367 27.2 37.9437 27.2 38.368C27.2 38.7923 27.0314 39.1993 26.7314 39.4994C26.4313 39.7994 26.0243 39.968 25.6 39.968H22.4C21.9757 39.968 21.5687 39.7994 21.2686 39.4994C20.9686 39.1993 20.8 38.7923 20.8 38.368C20.8 37.9437 20.9686 37.5367 21.2686 37.2366C21.5687 36.9366 21.9757 36.768 22.4 36.768H25.6V36.768ZM27.2 25.976C27.2 25.8763 27.1604 25.7806 27.0899 25.7101C27.0194 25.6396 26.9237 25.6 26.824 25.6H21.176C21.0763 25.6 20.9806 25.6396 20.9101 25.7101C20.8396 25.7806 20.8 25.8763 20.8 25.976V31.968H27.2V25.976ZM22.864 27.664C23.456 27.072 24.528 27.072 25.136 27.664C25.424 27.968 25.6 28.384 25.6 28.8C25.6021 29.0107 25.5622 29.2197 25.4826 29.4148C25.4029 29.6099 25.2851 29.7871 25.1361 29.9361C24.9871 30.0851 24.8099 30.2029 24.6148 30.2826C24.4197 30.3622 24.2107 30.4021 24 30.4C23.7893 30.4021 23.5803 30.3622 23.3852 30.2826C23.1901 30.2029 23.0129 30.0851 22.8639 29.9361C22.7149 29.7871 22.5971 29.6099 22.5174 29.4148C22.4378 29.2197 22.3979 29.0107 22.4 28.8C22.4 28.384 22.576 27.968 22.864 27.664ZM4.768 11.184C3.904 11.184 3.2 11.888 3.2 12.7552V28.7696H17.6V25.976C17.6008 25.0277 17.9778 24.1185 18.6482 23.4478C19.3186 22.7771 20.2277 22.3997 21.176 22.3984H26.824C27.7723 22.3997 28.6814 22.7771 29.3518 23.4478C30.0222 24.1185 30.3992 25.0277 30.4 25.976V28.768H44.8V12.7536C44.7992 12.338 44.6337 11.9397 44.3398 11.6458C44.0459 11.3519 43.6476 11.1864 43.232 11.1856H4.768V11.184ZM17.6 4.768V7.984H30.3664V4.768C30.3664 4.35242 30.2014 3.95383 29.9077 3.65982C29.614 3.36581 29.2156 3.20042 28.8 3.2H19.1664C18.7508 3.20042 18.3524 3.36581 18.0587 3.65982C17.765 3.95383 17.6 4.35242 17.6 4.768V4.768Z" fill="#13C1AC"/>
</svg>

<svg width="48" height="48" viewBox="0 0 48 48" fill="none" xmlns="http://www.w3.org/2000/svg"><path fill-rule="evenodd" clip-rule="evenodd" d="M14.4 7.984H4.768A4.774 4.774 0 000 12.754v16.075c0 1.168.65 2.179 1.6 2.72v11.723a4.685 4.685 0 004.678 4.678h35.444a4.685 4.685 0 004.678-4.678V31.547c.95-.539 1.6-1.549 1.6-2.717V12.754a4.775 4.775 0 00-4.768-4.77H14.4z" fill="#13C1AC" fill-opacity=".35"/><path fill-rule="evenodd" clip-rule="evenodd" d="M27.2 25.976v5.992h-6.4v-5.992c0-.205.168-.376.376-.376h5.648c.208 0 .376.171.376.376z" fill="#fff" fill-opacity=".5"/><path fill-rule="evenodd" clip-rule="evenodd" d="M43.232 7.984A4.775 4.775 0 0148 12.754v16.075c0 1.168-.65 2.179-1.6 2.72v11.723a4.685 4.685 0 01-4.678 4.678H6.278A4.685 4.685 0 011.6 43.272V31.547A3.125 3.125 0 010 28.83V12.754a4.774 4.774 0 014.768-4.77H14.4V4.768A4.773 4.773 0 0119.166 0H28.8a4.773 4.773 0 014.766 4.768v3.216h9.666zM43.2 43.272V31.968H30.4v1.334a1.869 1.869 0 01-1.867 1.866h-9.066a1.869 1.869 0 01-1.867-1.864V31.97H4.8v11.304a1.48 1.48 0 001.478 1.478h35.444a1.48 1.48 0 001.478-1.48zm-17.6-6.504a1.6 1.6 0 010 3.2h-3.2a1.6 1.6 0 010-3.2h3.2zm1.6-10.792a.376.376 0 00-.376-.376h-5.648a.376.376 0 00-.376.376v5.992h6.4v-5.992zm-4.336 1.688c.592-.592 1.664-.592 2.272 0 .288.304.464.72.464 1.136a1.586 1.586 0 01-1.6 1.6 1.586 1.586 0 01-1.6-1.6c0-.416.176-.832.464-1.136zM4.768 11.184c-.864 0-1.568.704-1.568 1.571V28.77h14.4v-2.794a3.58 3.58 0 013.576-3.578h5.648a3.581 3.581 0 013.576 3.578v2.792h14.4V12.754a1.57 1.57 0 00-1.568-1.568H4.768v-.002zM17.6 4.768v3.216h12.766V4.768A1.568 1.568 0 0028.8 3.2h-9.634A1.568 1.568 0 0017.6 4.768z" fill="#13C1AC"/></svg>
